X: 1571
T: Top of the Morning, The
R:hornpipe
N:"Collected by F. O'Neill"
B:O'Neill's 1571
Z:Transcribed by Michael Hogan
M:2/4
L:1/16
K:G
(3DEF | G>FG>A G2A>B | c>AF>A G2A>B | c>Bc>e d>BG>B | A>GF>E D>EF>D |
G>FG>A G2A>B | c>AF>A G2A>B | c>Bc>e d>BA>B | G2G>G G2 :|
|: (A>B) | c>Bc>d e2d>c | B>AB>c d2B>G | G>FG>A B2A>G | A2d>e d>cA>F |
G>FG>A G2A>B | c>AF>A G2A>B | c>Bc>e d>BA>B | G2G>G G2 :||


